src/actions/16/boundingbox_bottom_left.svg

<svg width="16" height="16" version="1.1">
 <g id="boundingbox_bottom_left">
  <path d="m4.5 1a0.50005 0.50005 0 0 0-0.5 0.5v5.6484a0.50005 0.50005 0 0 0 0.64453 0.47852c0.27743-0.083482 0.56576-0.12606 0.85547-0.12695 0.29029 1.631e-4 0.57929 0.041898 0.85742 0.125a0.50005 0.50005 0 0 0 0.64258-0.47852v-5.6465a0.50005 0.50005 0 0 0-0.5-0.5zm0.5 1h1v4.5742c-0.1676-0.021471-0.33059-0.074124-0.5-0.074219a0.50005 0.50005 0 0 0-0.00195 0c-0.16877 4.105e-4 -0.33111 0.052597-0.49805 0.074219zm3.8535 7a0.50005 0.50005 0 0 0-0.47852 0.64258c0.083102 0.27814 0.12484 0.56714 0.125 0.85742-8.922e-4 0.28971-0.043471 0.57804-0.12695 0.85547a0.50005 0.50005 0 0 0 0.47852 0.64453h5.6484a0.50005 0.50005 0 0 0 0.5-0.5v-2a0.50005 0.50005 0 0 0-0.5-0.5zm0.57227 1h4.5742v1h-4.5742c0.021622-0.16694 0.073808-0.32928 0.074219-0.49805a0.50005 0.50005 0 0 0 0-0.001953c-9.52e-5 -0.16941-0.052748-0.3324-0.074219-0.5z" fill="#363636"/>
 </g>
 <path d="m5.5 6a4.5 4.5 0 0 0-4.5 4.5 4.5 4.5 0 0 0 4.5 4.5 4.5 4.5 0 0 0 4.5-4.5 4.5 4.5 0 0 0-4.5-4.5zm0 2a2.5 2.5 0 0 1 2.5 2.5 2.5 2.5 0 0 1-2.5 2.5 2.5 2.5 0 0 1-2.5-2.5 2.5 2.5 0 0 1 2.5-2.5z" fill="#61a1ff"/>
</svg>

<svg width="16" height="16">
    <path fill="#050505" fill-opacity=".7" d="M4.5 1a.5.5 0 0 0-.5.5v5.648a.5.5 0 0 0 .645.479 3.001 3.001 0 0 1 1.712-.002A.5.5 0 0 0 7 7.146V1.5a.5.5 0 0 0-.5-.5zM5 2h1v4.574c-.168-.021-.33-.074-.5-.074a.5.5 0 0 0-.002 0c-.169 0-.331.053-.498.074zm3.854 7a.5.5 0 0 0-.479.643 3.001 3.001 0 0 1-.002 1.712.5.5 0 0 0 .479.645H14.5a.5.5 0 0 0 .5-.5v-2a.5.5 0 0 0-.5-.5zm.572 1H14v1H9.426c.021-.167.074-.33.074-.498a.5.5 0 0 0 0-.002c0-.17-.053-.332-.074-.5z"/>
    <path fill="#a0b6cb" d="M5.5 6A4.5 4.5 0 0 0 1 10.5 4.5 4.5 0 0 0 5.5 15a4.5 4.5 0 0 0 4.5-4.5A4.5 4.5 0 0 0 5.5 6zm0 2A2.5 2.5 0 0 1 8 10.5 2.5 2.5 0 0 1 5.5 13 2.5 2.5 0 0 1 3 10.5 2.5 2.5 0 0 1 5.5 8z"/>
</svg>
